!! 00000] TT[00
!! NN
!!!OTL: He bian ge
!!!ARE: Guizhou, Congjiang (SÅdwesten)
!! Ethnic Group: Dong
!! II, 161
!!!SCT: C0217B
!!!YEM: Copyright 1995, estate of Helmut Schaffrath.
**kern
*ICvox
*Ivox
!! Mixed meters:  2/4; 3/4
*M3/4
*k[b-]
*F:
{4g
4d
=1
4f
4a
=2
2a}
=3
{4f
4d
=4
2f
8a
8g
=5
*M2/4
4f
4d}
=6
{4g
4d
=7
8d
8g
4f
=8
*M3/4
4a
2a}
=9
*M2/4
{8a
8g
8a
8g
=10
8g
8f
4d
=11
2d}
=12
{8d
8g
4d
=13
4f
8a
8g
=14
*M3/4
4d
8f
8g
8a
8g
=15
*M2/4
2d}
=16
{4d
4g
=17
4f
[4a
=18
2a]}
=19
{8a
8cc
8g
8a
=20
4f
4d
=21
2d
=22
4f
4g
=23
8a
8cc
8g
[8a
=24
4.a]
8cc}
=25
{4g
4cc
=26
4g
8g
8f
=27
4d
4d
=28
4g
[4d
=29
2d]}
==
!!!AGN: Liebeslied
!! zweistimmig! Gr. u. kl. 2 gelten hier als Konsonanzen!
!!    2 Lieder = 2 Dokumente. Die 2. Stimme ist in diesem Dokument unter
!!    gleicher Signatur kodiert. Mehrere Verzierungen.
!!    Phr.2, T.3 bis Phr. 5 zweistimmig: bis Phr.3 Orgelpunkt auf -6 in der
!!    Unterstimme, ab Phr.4 Orgelpunkt in der Oberstimme.
!!!ONB: ESAC (Essen Associative Code) Database: CHINA
!!!AMT: irregular
!!!AIN: vox
!!!EED: Helmut Schaffrath
!!!EEV: 1.0
*-
!!!ONB: Tied note syntax fixed by Craig Sapp, 2004/05/03/
